X: 77
T: No_168_Hair_Dance_Song_(f).krn
N: Derived from No_168_Hair_Dance_Song_(f).krn
%%abc-version 2.0
%%abcx-abcm2ps-target-version 5.9.1 (29 Sep 2008)
%%abc-creator hum2abc beta
%%abcx-conversion-date 2019/03/15 08:38:45
%%humdrum-veritas 1625963291
%%humdrum-veritas-data 1689073580
%%linebreak <none>
%%barnumbers 0
L: 1/8
M: 2/4
K: E clef=bass
[K:clef=bass][M:2/4]G,G, CC ]|:  
(CB,)G,2 | 
B,2G,G, | 
G,4 | 
B,2G,F, | 
(F,E,) C,C, | 
E,2C,C, | 
B,,4 ||  
[M:3/4]C,2B,,B,, B,, z ||  
[M:2/4]C,2E,E, | 
(C,B,,)B,,2 ||  
[M:3/4]C,2B,,B,,B,,2 | 
[M:2/4]B,2CC :|]  



% FRACTION = 0.499634BUT SHOULD BE 0
